Sources/FrostedUI/Resources/Icons.xcassets/cameraAdd12.imageset/camera-add-12.svg

<svg width="12" height="12" viewBox="0 0 12 12" fill="none" xmlns="http://www.w3.org/2000/svg" data-fui-icon="true">
  <path
    d="M6 0.375C6.41421 0.375 6.75 0.710786 6.75 1.125C6.75 1.53921 6.41421 1.875 6 1.875H4.80469C4.42477 1.87513 4.07431 2.08061 3.88867 2.41211L3.70605 2.7373C3.356 3.36242 2.69594 3.74998 1.97949 3.75C1.71471 3.75 1.5 3.96471 1.5 4.22949V9.0752C1.50011 9.65494 1.97006 10.1249 2.5498 10.125H9.4502C10.0299 10.1249 10.4999 9.65494 10.5 9.0752V6.5C10.5 6.08579 10.8358 5.75 11.25 5.75C11.6642 5.75 12 6.08579 12 6.5V9.0752C11.9999 10.4834 10.8584 11.6249 9.4502 11.625H2.5498C1.14163 11.6249 0.000105647 10.4834 0 9.0752V4.22949C0 3.13628 0.886285 2.25 1.97949 2.25C2.15294 2.24998 2.31266 2.15618 2.39746 2.00488L2.58008 1.67871C3.03103 0.873646 3.88193 0.375127 4.80469 0.375H6ZM6 3.5625C7.51878 3.5625 8.75 4.79372 8.75 6.3125C8.75 7.83128 7.51878 9.0625 6 9.0625C4.48122 9.0625 3.25 7.83128 3.25 6.3125C3.25 4.79372 4.48122 3.5625 6 3.5625ZM6 5.0625C5.30964 5.0625 4.75 5.62214 4.75 6.3125C4.75 7.00286 5.30964 7.5625 6 7.5625C6.69036 7.5625 7.25 7.00286 7.25 6.3125C7.25 5.62214 6.69036 5.0625 6 5.0625ZM9.75 0.25C10.1642 0.25 10.5 0.585786 10.5 1V1.75H11.25C11.6642 1.75 12 2.08579 12 2.5C12 2.91421 11.6642 3.25 11.25 3.25H10.5V4C10.5 4.41421 10.1642 4.75 9.75 4.75C9.33579 4.75 9 4.41421 9 4V3.25H8.25C7.83579 3.25 7.5 2.91421 7.5 2.5C7.5 2.08579 7.83579 1.75 8.25 1.75H9V1C9 0.585786 9.33579 0.25 9.75 0.25Z"
    fill="currentColor"
  />
</svg>

<svg xmlns="http://www.w3.org/2000/svg" width="12" height="12" fill="none" data-fui-icon="true" viewBox="0 0 12 12"><path fill="currentColor" d="M6 .375a.75.75 0 0 1 0 1.5H4.805c-.38 0-.73.206-.916.537l-.183.325A1.98 1.98 0 0 1 1.979 3.75a.48.48 0 0 0-.479.48v4.845c0 .58.47 1.05 1.05 1.05h6.9c.58 0 1.05-.47 1.05-1.05V6.5a.75.75 0 0 1 1.5 0v2.575a2.55 2.55 0 0 1-2.55 2.55h-6.9A2.55 2.55 0 0 1 0 9.075V4.23A1.98 1.98 0 0 1 1.98 2.25a.48.48 0 0 0 .417-.245l.183-.326A2.55 2.55 0 0 1 4.805.375zm0 3.188a2.75 2.75 0 1 1 0 5.5 2.75 2.75 0 0 1 0-5.5m0 1.5a1.25 1.25 0 1 0 0 2.5 1.25 1.25 0 0 0 0-2.5M9.75.25a.75.75 0 0 1 .75.75v.75h.75a.75.75 0 0 1 0 1.5h-.75V4A.75.75 0 0 1 9 4v-.75h-.75a.75.75 0 0 1 0-1.5H9V1a.75.75 0 0 1 .75-.75"/></svg>
